src/assets/skill-design.svg

<svg xmlns="http://www.w3.org/2000/svg" width="40" height="40" viewBox="0 0 40 40">
  <g fill="#030226">
    <path d="M34.512,29.3333333 C34.723735,28.2093679 34.7183039,27.0552563 34.496,25.9333333 L37.5493333,18.5646667 C37.54965,18.5597829 37.54965,18.5548837 37.5493333,18.55 C38.0441177,17.1953697 38.7692266,15.9364091 39.6926667,14.8286667 C39.9224323,14.5859763 40.0148605,14.2440669 39.9386667,13.9186667 L38.6866667,8.512 C38.6717689,8.4554796 38.6493462,8.4012166 38.62,8.35066667 C38.6146667,8.34066667 38.6126667,8.32866667 38.6073333,8.31933333 C38.602,8.31 38.5786667,8.28733333 38.5653333,8.27 C38.5380503,8.23005707 38.5065343,8.19317667 38.4713333,8.16 C38.4481467,8.14368747 38.4238674,8.1289862 38.3986667,8.116 C38.3661583,8.09207387 38.3315762,8.07110153 38.2953333,8.05333333 C38.2450775,8.0343524 38.1926884,8.02159093 38.1393333,8.01533333 C38.124,8.01533333 38.1106667,8.00533333 38.0953333,8.004 C37.9675545,7.99548487 37.8400271,8.02395287 37.728,8.086 C37.718,8.09133333 37.706,8.09333333 37.696,8.09933333 L37.6893333,8.09933333 L32.982,11.0373333 C32.6969277,11.2138634 32.5199817,11.5221404 32.5113333,11.8573333 C32.3805643,13.2967715 32.0014019,14.7026723 31.3906667,16.0126667 L31.3906667,16.02 L29.8646667,19.7086667 C29.1156922,19.3105141 28.3138802,19.0209459 27.4833333,18.8486667 C27.7977199,16.6786203 27.9133109,14.4844006 27.8286667,12.2933333 C29.06967,10.8043661 29.6652619,8.88177067 29.4833333,6.952 C29.0666667,3.06666667 25.5553333,0.260666667 25.4053333,0.142666667 C25.1798853,-0.0348717719 24.8661237,-0.048223759 24.6264079,0.109519835 C24.3866921,0.267263429 24.2748142,0.560704981 24.3486667,0.838 C24.692,2.12733333 24.3946667,3.488 21.8586667,6.286 C20.7192603,7.38619213 20.3581007,9.066072 20.9446667,10.5373333 C21.1689337,11.1000654 21.4902557,11.6190545 21.894,12.0706667 C21.7326667,13.1006667 21.606,14.076 21.5186667,15.026 C21.3682878,16.5972766 21.3295239,18.1772393 21.4026667,19.754 C20.8079306,20.0764449 20.2511345,20.4644133 19.7426667,20.9106667 L16.5093333,7.084 C16.5093333,7.07 16.496,7.06 16.492,7.04733333 C16.4811481,7.00288153 16.4655008,6.95973973 16.4453333,6.91866667 L13.1426667,0.819333333 C12.8121449,0.208848832 12.113895,-0.104860997 11.4379701,0.0534469271 C10.7620451,0.211754851 10.2757213,0.802902853 10.2506667,1.49666667 L10,8.42666667 C10.0001617,8.4766792 10.00575,8.52652653 10.0166667,8.57533333 C10.0166667,8.586 10.0166667,8.59533333 10.0166667,8.60533333 L13.3153333,22.6833333 C12.7949665,22.7063077 12.2784048,22.7833897 11.774,22.9133333 L8.14533333,14.15 C7.854363,13.4801009 7.08262573,13.1640139 6.40533333,13.4373333 L0.859333333,15.7333333 C0.18057813,16.0166565 -0.14198607,16.7949207 0.137333333,17.4753333 L5.05866667,29.3473333 C2.17433759,29.4987701 -0.0645515325,31.9200422 0.0098952406,34.8073844 C0.0843420133,37.6947266 2.4450327,39.9974037 5.33333333,40 L34.6666667,40 C36.5720831,39.9723715 38.318021,38.9303141 39.2468022,37.2663607 C40.1755835,35.6024073 40.1461041,33.5693521 39.1694689,31.9330273 C38.1928336,30.2967025 36.4174165,29.3057047 34.512,29.3333333 Z M33.8326667,12.0773333 L36.6273333,10.3333333 L35.638,12.7226667 C35.4969833,13.0628741 35.6584593,13.4529833 35.9986667,13.594 C36.3388741,13.7350167 36.7289833,13.5735407 36.87,13.2333333 L37.8593333,10.844 L38.6,14.0526667 C37.8075502,15.0194311 37.1565907,16.0939632 36.6666667,17.244 C35.9716091,17.5661886 35.173459,17.5829071 34.4655195,17.2901063 C33.7575801,16.9973056 33.2044169,16.4216898 32.94,15.7026667 C33.4082169,14.5427485 33.7087925,13.3220391 33.8326667,12.0773333 Z M32.2993333,17.3113333 C32.7403736,17.850549 33.3127158,18.2672362 33.9613333,18.5213333 C34.4769053,18.7430877 35.0314525,18.8600253 35.5926667,18.8653333 C35.727694,18.8648374 35.8625819,18.8566017 35.9966667,18.8406667 L33.8693333,23.974 C33.2323311,22.5695405 32.2469229,21.3512051 31.0066667,20.4346667 L32.2993333,17.3113333 Z M23.166,12.55 L26.5153333,12.7546667 C26.536,13.3773333 26.5286667,14.0213333 26.508,14.6753333 C25.3922179,14.7550575 24.2709035,14.7008943 23.168,14.514 C23.084,14.502 23.002,14.4926667 22.9186667,14.4813333 C22.9853333,13.8533333 23.0666667,13.2173333 23.1646667,12.55 L23.166,12.55 Z M22.848,7.18133333 C24.618,5.22866667 25.5353333,3.72666667 25.7486667,2.31466667 C27.0209443,3.62369726 27.8607645,5.2917027 28.1546667,7.09333333 C28.2946801,8.66172833 27.8097401,10.2219698 26.8053333,11.4346667 C25.4884445,11.3546667 24.186,11.2746667 22.898,11.1946667 C22.3445651,10.6772881 22.0261956,9.9564932 22.0165061,9.1989466 C22.0068165,8.44140007 22.3066459,7.71269793 22.8466667,7.18133333 L22.848,7.18133333 Z M22.7973333,15.81 L22.9906667,15.8353333 C23.8497095,15.9681875 24.7168588,16.0419164 25.586,16.056 C25.862,16.056 26.1526667,16.034 26.444,16.0113333 C26.3833333,16.8693333 26.284,17.7653333 26.158,18.6913333 C25.9933333,18.6826667 25.832,18.6666667 25.6666667,18.6666667 C24.6601471,18.6684717 23.6611779,18.8404513 22.712,19.1753333 C22.6812582,18.0528583 22.7092965,16.9295435 22.796,15.81 L22.7973333,15.81 Z M17.6406667,23.606 L15.7333333,15.4813333 C15.6441651,15.1288505 15.2890092,14.9128183 14.9350023,14.995729 C14.5809953,15.0786397 14.3587061,15.4299133 14.4353333,15.7853333 L16.1493333,23.098 C15.6780833,22.9294659 15.1912445,22.8082029 14.696,22.736 L11.77,10.2493333 C12.1798944,10.4359591 12.6249531,10.5327901 13.0753333,10.5333333 C13.1173333,10.5333333 13.162,10.5273333 13.2046667,10.5253333 L13.676,12.538 C13.7267899,12.7735791 13.9007657,12.9634081 14.1310337,13.0344981 C14.3613018,13.1055879 14.6120105,13.0468703 14.7867627,12.8809221 C14.9615149,12.7149739 15.0331024,12.4676323 14.974,12.234 L14.502,10.22 C14.9543193,10.0197595 15.3532618,9.71604253 15.6666667,9.33333333 L18.6413333,22.0526667 C18.2550409,22.5345059 17.919696,23.0550613 17.6406667,23.606 Z M13.5673333,9.13933333 C12.7147209,9.30468973 11.8441918,8.95611307 11.3413333,8.248 L11.426,5.9 C11.657963,5.9433249 11.8933613,5.96563753 12.1293333,5.96666667 C12.3572535,5.96762265 12.5845265,5.94234524 12.8066667,5.89133333 C13.2564025,5.77322279 13.6770921,5.56401259 14.0426667,5.27666667 L15.1653333,7.34866667 C15.0315683,8.20834693 14.4061411,8.909702 13.5673333,9.14066667 L13.5673333,9.13933333 Z M11.7413333,1.35133333 C11.8321469,1.33030009 11.9258643,1.37225498 11.9706667,1.454 L13.4,4.09733333 C13.1421571,4.33059505 12.8342713,4.50164269 12.5,4.59733333 C12.1583503,4.66004267 11.8068585,4.64339187 11.4726667,4.54866667 L11.5813333,1.54466667 C11.5849564,1.45151108 11.6504989,1.37231394 11.7413333,1.35133333 Z M6.91666667,14.6666667 L7.426,15.8973333 L4.95933333,16.9186667 C4.66690659,17.0414679 4.50148046,17.3532882 4.56377495,17.6642752 C4.62606944,17.9752623 4.89883591,18.1993073 5.216,18.2 C5.30358982,18.1998125 5.39030845,18.1826046 5.47133333,18.1493333 L7.938,17.1273333 L8.448,18.3593333 L7.214,18.8706667 C6.9198984,18.9923779 6.75285627,19.305015 6.81515353,19.6171502 C6.8774508,19.9292855 7.15170907,20.153846 7.47,20.1533333 C7.557362,20.1530259 7.64383967,20.135821 7.72466667,20.1026667 L8.95866667,19.5913333 L9.46866667,20.8233333 L7,21.8466667 C6.7058984,21.9683779 6.53885628,22.281015 6.60115355,22.5931502 C6.66345081,22.9052855 6.93770907,23.129846 7.256,23.1293333 C7.3433688,23.1290934 7.4298592,23.1118859 7.51066667,23.0786667 L9.97733333,22.0573333 L10.5166667,23.3593333 C8.34426247,24.3509137 6.75125913,26.2898263 6.2,28.6133333 L1.368,16.9626667 L6.91666667,14.6666667 Z M34.6666667,38.6666667 L5.33333333,38.6666667 C3.12419433,38.6666667 1.33333333,36.8758057 1.33333333,34.6666667 C1.33333333,32.4575277 3.12419433,30.6666667 5.33333333,30.6666667 C5.71961741,30.6653808 6.10397785,30.7210917 6.474,30.832 C6.673895,30.8923827 6.89053427,30.8556161 7.05931493,30.7326641 C7.2280956,30.6097122 7.32951647,30.414781 7.33333333,30.206 C7.38075693,27.8300499 8.75426093,25.6805963 10.8904272,24.6393557 C13.0265935,23.5981153 15.565883,23.8403394 17.4666667,25.2666667 C17.6346335,25.3916848 17.8515772,25.4305261 18.0524859,25.3715509 C18.2533947,25.3125758 18.4149234,25.1626369 18.4886667,24.9666667 C19.7911369,21.4954549 23.3909215,19.4536327 27.0386015,20.1170855 C30.6862817,20.7805384 33.3365566,23.9591433 33.3333333,27.6666667 C33.3346321,28.4290915 33.221138,29.1873671 32.9966667,29.916 C32.9265994,30.1426962 32.9823045,30.3895491 33.1429369,30.5641854 C33.3035693,30.7388216 33.544917,30.8149184 33.7766667,30.764 C34.0689731,30.6996638 34.3673641,30.6670308 34.6666667,30.6666667 C36.8758057,30.6666667 38.6666667,32.4575277 38.6666667,34.6666667 C38.6666667,36.8758057 36.8758057,38.6666667 34.6666667,38.6666667 Z"/>
    <path d="M25.79 10.4666714C25.9992534 10.4674554 26.1967356 10.3699485 26.3233333 10.2033333 27.1556327 9.0768304 27.4772793 7.6528792 27.21 6.278 27.1531396 6.04291538 26.9734157 5.85706589 26.7403681 5.79236138 26.5073205 5.72765687 26.2575078 5.79424772 26.087589 5.96636824 25.9176701 6.13848876 25.8543007 6.38913795 25.922 6.62133333 26.0816094 7.5982912 25.8434452 8.5984848 25.2606667 9.39866667 25.1091579 9.6006784 25.0847872 9.87095307 25.1977152 10.0968091 25.3106432 10.3226651 25.5414853 10.4653333 25.794 10.4653333L25.79 10.4666714zM24.9133333 30.6666667C24.4175909 30.6681935 23.9286543 30.7821647 23.4833333 31 22.284054 29.3589559 20.0447444 28.8782193 18.2775809 29.8824251 16.5104173 30.8866309 15.7773171 33.0564649 16.5733333 34.9266667 16.6780755 35.1724809 16.9194672 35.3320018 17.1866667 35.3320018 17.2765015 35.3322114 17.3654319 35.3140623 17.448 35.2786667 17.6106699 35.2093613 17.7391441 35.0782717 17.8051576 34.9142382 17.8711711 34.7502048 17.8693158 34.5666655 17.8 34.404 17.6548686 34.0657075 17.5800198 33.7014433 17.58 33.3333333 17.58 31.860574 18.7739073 30.6666667 20.2466667 30.6666667 21.2810154 30.6615203 22.2230835 31.2608997 22.6566667 32.2 22.6710882 32.2217099 22.6866662 32.242629 22.7033333 32.2626667 22.7138633 32.2855281 22.7256593 32.3077849 22.7386667 32.3293333 22.7506667 32.344 22.768 32.3506667 22.7813333 32.3646667 22.8126088 32.3971363 22.8472479 32.4261885 22.8846667 32.4513333 22.9179689 32.4769725 22.9536938 32.4993005 22.9913333 32.518 23.0300548 32.5342331 23.0702369 32.5467342 23.1113333 32.5553333 23.1523299 32.5660959 23.1943326 32.572575 23.2366667 32.5746667 23.3232752 32.573972 23.4092277 32.5595716 23.4913333 32.532 23.5091035 32.5287262 23.5266845 32.5244979 23.544 32.5193333 23.5656327 32.5053469 23.5863423 32.4899817 23.606 32.4733333 23.6299963 32.4626686 23.6533672 32.4506493 23.676 32.4373333 24.0261791 32.1541375 24.4629721 31.9997538 24.9133333 32 25.6928351 32.0012687 26.4005757 32.4553155 26.7266667 33.1633333 26.8794655 33.4983861 27.2749473 33.6461321 27.61 33.4933333 27.9450527 33.3405345 28.0927987 32.9450527 27.94 32.61 27.3971459 31.4267765 26.2151425 30.667847 24.9133333 30.6666667zM11.7893333 26.034C11.6886667 26.0666667 9.33333333 26.8813333 9.33333333 29.3333333 9.33333333 29.7015231 9.6318102 30 10 30 10.3681898 30 10.6666667 29.7015231 10.6666667 29.3333333 10.7210869 28.4033419 11.3329862 27.5988076 12.2146667 27.298 12.564447 27.1805474 12.7527859 26.8017803 12.6353333 26.452 12.5178807 26.1022197 12.1391137 25.9138808 11.7893333 26.0313333L11.7893333 26.034zM21.1713333 25.3133333C21.2242797 25.3267738 21.2787079 25.3334933 21.3333333 25.3333312 21.638871 25.3330197 21.9050878 25.1250465 21.9793333 24.8286667 22.2861795 23.5837747 23.3882383 22.6982502 24.67 22.6666667 25.0381898 22.6657462 25.3359205 22.3665231 25.3350021 21.9983333 25.3340795 21.6301435 25.0348565 21.3324129 24.6666667 21.3333312 22.7717991 21.3584954 21.1343229 22.663265 20.6866667 24.5046667 20.5972066 24.8618093 20.8141953 25.2238551 21.1713333 25.3133333z"/>
  </g>
</svg>

<svg xmlns="http://www.w3.org/2000/svg" width="40" height="40"><g fill="#030226"><path d="M34.512 29.333a8.96 8.96 0 00-.016-3.4l3.053-7.368v-.015a12.52 12.52 0 012.144-3.721.994.994 0 00.246-.91l-1.252-5.407a.653.653 0 00-.067-.161c-.005-.01-.007-.022-.013-.032-.005-.009-.028-.032-.042-.049a.672.672 0 00-.094-.11.62.62 0 00-.072-.044.677.677 0 00-.104-.063.659.659 0 00-.156-.038c-.015 0-.028-.01-.044-.011a.667.667 0 00-.367.082c-.01.005-.022.007-.032.013h-.007l-4.707 2.938a.995.995 0 00-.47.82c-.131 1.44-.51 2.846-1.121 4.156v.007l-1.526 3.689a8.943 8.943 0 00-2.382-.86c.315-2.17.43-4.365.346-6.556a7.276 7.276 0 001.654-5.341c-.416-3.885-3.928-6.691-4.078-6.81a.667.667 0 00-1.056.696c.343 1.29.046 2.65-2.49 5.448a3.901 3.901 0 00-.914 4.251c.224.563.545 1.082.949 1.534a46.7 46.7 0 00-.375 2.955 33.388 33.388 0 00-.116 4.728 9.07 9.07 0 00-1.66 1.157L16.509 7.084c0-.014-.013-.024-.017-.037a.632.632 0 00-.047-.128l-3.302-6.1a1.54 1.54 0 00-2.892.678L10 8.427c0 .05.006.1.017.148v.03l3.298 14.078c-.52.023-1.037.1-1.541.23L8.145 14.15a1.347 1.347 0 00-1.74-.713L.86 15.733a1.337 1.337 0 00-.722 1.742L5.06 29.347A5.33 5.33 0 005.333 40h29.334a5.334 5.334 0 10-.155-10.667zm-.68-17.256l2.795-1.744-.989 2.39a.667.667 0 001.232.51l.99-2.389.74 3.209a13.187 13.187 0 00-1.933 3.191 2.742 2.742 0 01-3.727-1.541c.468-1.16.769-2.381.893-3.626zM32.3 17.311a4.06 4.06 0 001.662 1.21 4.23 4.23 0 001.632.344c.135 0 .27-.008.404-.024l-2.128 5.133a9.048 9.048 0 00-2.862-3.54l1.292-3.123zm-9.133-4.761l3.35.205c.02.622.013 1.266-.008 1.92-1.116.08-2.237.026-3.34-.161l-.25-.033a48.38 48.38 0 01.247-1.931h.001zm-.318-5.369c1.77-1.952 2.687-3.454 2.9-4.866a8.916 8.916 0 012.407 4.778 5.973 5.973 0 01-1.35 4.342l-3.907-.24a2.78 2.78 0 01-.051-4.014h.001zm-.05 8.629l.193.025c.859.133 1.726.207 2.595.221.276 0 .567-.022.858-.045-.06.858-.16 1.754-.286 2.68-.165-.008-.326-.024-.491-.024a8.929 8.929 0 00-2.955.508 32.176 32.176 0 01.084-3.365h.001zm-5.157 7.796l-1.908-8.125a.667.667 0 00-1.298.304l1.714 7.313a7.55 7.55 0 00-1.453-.362L11.77 10.249c.41.187.855.284 1.305.284.042 0 .087-.006.13-.008l.471 2.013a.667.667 0 101.298-.304l-.472-2.014c.452-.2.851-.504 1.165-.887l2.974 12.72a8.943 8.943 0 00-1 1.553zM13.567 9.139a2.213 2.213 0 01-2.226-.891l.085-2.348c.232.043.467.066.703.067a2.97 2.97 0 00.678-.076c.45-.118.87-.327 1.236-.614l1.122 2.072a2.211 2.211 0 01-1.598 1.792v-.002zm-1.826-7.788c.091-.02.185.021.23.103L13.4 4.097a2.275 2.275 0 01-.9.5 2.267 2.267 0 01-1.027-.048l.108-3.004a.207.207 0 01.16-.194zM6.917 14.667l.509 1.23-2.467 1.022a.667.667 0 00.512 1.23l2.467-1.022.51 1.232-1.234.512a.667.667 0 10.51 1.232l1.235-.512.51 1.232L7 21.847a.667.667 0 10.51 1.232l2.467-1.022.54 1.302A7.74 7.74 0 006.2 28.613l-4.832-11.65 5.549-2.296zm27.75 24H5.333a4 4 0 111.141-7.835.667.667 0 00.86-.626 6.333 6.333 0 0110.133-4.94.667.667 0 001.022-.3 7.667 7.667 0 0114.844 2.7 7.596 7.596 0 01-.336 2.25.667.667 0 00.78.848c.292-.064.59-.097.89-.097a4 4 0 110 8z"/><path d="M25.79 10.467c.21 0 .407-.097.533-.264a5 5 0 00.887-3.925.667.667 0 10-1.288.343 3.703 3.703 0 01-.661 2.778.667.667 0 00.533 1.066l-.004.002zm-.877 20.2a3.277 3.277 0 00-1.43.333 4 4 0 00-6.91 3.927.667.667 0 001.227-.523 2.716 2.716 0 01-.22-1.07 2.667 2.667 0 012.667-2.667 2.64 2.64 0 012.41 1.533c.014.022.03.043.046.063.01.023.023.045.036.066.012.015.029.022.042.036a.636.636 0 00.104.086.646.646 0 00.106.067.66.66 0 00.12.037c.041.011.083.018.126.02a.82.82 0 00.254-.043.503.503 0 00.053-.013.6.6 0 00.062-.046.693.693 0 00.07-.036c.35-.283.787-.437 1.237-.437a2 2 0 011.814 1.163.667.667 0 101.213-.553 3.333 3.333 0 00-3.027-1.943zM11.79 26.034c-.1.033-2.456.847-2.456 3.3a.667.667 0 001.334 0 2.292 2.292 0 011.548-2.036.668.668 0 00-.426-1.267v.003zm9.382-.72a.667.667 0 00.808-.485 2.843 2.843 0 012.691-2.162.667.667 0 00-.003-1.334 4.153 4.153 0 00-3.98 3.172c-.09.357.127.719.484.808z"/></g></svg>
